tools/download-figma-icons/icons/outlined-large/overview.svg

<svg width="64" height="64" viewBox="0 0 64 64" fill="none" xmlns="http://www.w3.org/2000/svg">
<path fill-rule="evenodd" clip-rule="evenodd" d="M2.99999 15.2262H15.2269V2.99923H2.99999V15.2262ZM16.7269 18.2262H1.49999C0.671997 18.2262 0 17.5542 0 16.7262V1.50024C0 0.672242 0.671997 0.00024414 1.49999 0.00024414H16.7269C17.5549 0.00024414 18.2269 0.672242 18.2269 1.50024V16.7262C18.2269 17.5542 17.5549 18.2262 16.7269 18.2262ZM25.8869 15.2262H38.1139V2.99923H25.8869V15.2262ZM39.6138 18.2262H24.3869C23.5589 18.2262 22.8869 17.5542 22.8869 16.7262V1.50024C22.8869 0.672242 23.5589 0.00024414 24.3869 0.00024414H39.6138C40.4418 0.00024414 41.1138 0.672242 41.1138 1.50024V16.7262C41.1138 17.5542 40.4418 18.2262 39.6138 18.2262ZM61.0008 15.2262H48.7738V2.99923H61.0008V15.2262ZM47.2738 18.2262H62.4998C63.3288 18.2262 63.9998 17.5542 63.9998 16.7262V1.50024C63.9998 0.672242 63.3288 0.00024414 62.4998 0.00024414H47.2738C46.4458 0.00024414 45.7738 0.672242 45.7738 1.50024V16.7262C45.7738 17.5542 46.4458 18.2262 47.2738 18.2262ZM2.99999 38.1131H15.2269V25.8861H2.99999V38.1131ZM16.7269 41.1131H1.49999C0.671997 41.1131 0 40.4411 0 39.6131V24.3862C0 23.5582 0.671997 22.8862 1.49999 22.8862H16.7269C17.5549 22.8862 18.2269 23.5582 18.2269 24.3862V39.6131C18.2269 40.4411 17.5549 41.1131 16.7269 41.1131ZM38.1139 38.1131H25.8869V25.8861H38.1139V38.1131ZM24.3869 41.1131H39.6138C40.4418 41.1131 41.1138 40.4411 41.1138 39.6131V24.3862C41.1138 23.5582 40.4418 22.8862 39.6138 22.8862H24.3869C23.5589 22.8862 22.8869 23.5582 22.8869 24.3862V39.6131C22.8869 40.4411 23.5589 41.1131 24.3869 41.1131ZM48.7738 38.1131H61.0008V25.8861H48.7738V38.1131ZM62.4998 41.1131H47.2738C46.4458 41.1131 45.7738 40.4411 45.7738 39.6131V24.3862C45.7738 23.5582 46.4458 22.8862 47.2738 22.8862H62.4998C63.3288 22.8862 63.9998 23.5582 63.9998 24.3862V39.6131C63.9998 40.4411 63.3288 41.1131 62.4998 41.1131ZM15.2269 61H2.99999V48.7731H15.2269V61ZM1.49999 64H16.7269C17.5549 64 18.2269 63.328 18.2269 62.5V47.2731C18.2269 46.4451 17.5549 45.7731 16.7269 45.7731H1.49999C0.671997 45.7731 0 46.4451 0 47.2731V62.5C0 63.328 0.671997 64 1.49999 64ZM25.8869 61H38.1139V48.7731H25.8869V61ZM39.6138 64H24.3869C23.5589 64 22.8869 63.328 22.8869 62.5V47.2731C22.8869 46.4451 23.5589 45.7731 24.3869 45.7731H39.6138C40.4418 45.7731 41.1138 46.4451 41.1138 47.2731V62.5C41.1138 63.328 40.4418 64 39.6138 64ZM61.0008 61H48.7738V48.7731H61.0008V61ZM47.2738 64H62.4998C63.3288 64 63.9998 63.328 63.9998 62.5V47.2731C63.9998 46.4451 63.3288 45.7731 62.4998 45.7731H47.2738C46.4458 45.7731 45.7738 46.4451 45.7738 47.2731V62.5C45.7738 63.328 46.4458 64 47.2738 64Z" fill="black"/>
</svg>

<svg width="64" height="64" viewBox="0 0 64 64" fill="none" xmlns="http://www.w3.org/2000/svg"><path fill-rule="evenodd" clip-rule="evenodd" d="M3 15.226h12.227V3H3v12.227Zm13.727 3H1.5a1.5 1.5 0 0 1-1.5-1.5V1.5A1.5 1.5 0 0 1 1.5 0h15.227a1.5 1.5 0 0 1 1.5 1.5v15.226a1.5 1.5 0 0 1-1.5 1.5Zm9.16-3h12.227V3H25.887v12.227Zm13.727 3H24.387a1.5 1.5 0 0 1-1.5-1.5V1.5a1.5 1.5 0 0 1 1.5-1.5h15.227a1.5 1.5 0 0 1 1.5 1.5v15.226a1.5 1.5 0 0 1-1.5 1.5Zm21.387-3H48.774V3H61v12.227Zm-13.727 3H62.5a1.5 1.5 0 0 0 1.5-1.5V1.5A1.5 1.5 0 0 0 62.5 0H47.274a1.5 1.5 0 0 0-1.5 1.5v15.226a1.5 1.5 0 0 0 1.5 1.5ZM3 38.113h12.227V25.886H3v12.227Zm13.727 3H1.5a1.5 1.5 0 0 1-1.5-1.5V24.386a1.5 1.5 0 0 1 1.5-1.5h15.227a1.5 1.5 0 0 1 1.5 1.5v15.227a1.5 1.5 0 0 1-1.5 1.5Zm21.387-3H25.887V25.886h12.227v12.227Zm-13.727 3h15.227a1.5 1.5 0 0 0 1.5-1.5V24.386a1.5 1.5 0 0 0-1.5-1.5H24.387a1.5 1.5 0 0 0-1.5 1.5v15.227a1.5 1.5 0 0 0 1.5 1.5Zm24.387-3H61V25.886H48.774v12.227Zm13.726 3H47.274a1.5 1.5 0 0 1-1.5-1.5V24.386a1.5 1.5 0 0 1 1.5-1.5H62.5a1.5 1.5 0 0 1 1.5 1.5v15.227a1.5 1.5 0 0 1-1.5 1.5ZM15.227 61H3V48.773h12.227V61ZM1.5 64h15.227a1.5 1.5 0 0 0 1.5-1.5V47.273a1.5 1.5 0 0 0-1.5-1.5H1.5a1.5 1.5 0 0 0-1.5 1.5V62.5A1.5 1.5 0 0 0 1.5 64Zm24.387-3h12.227V48.773H25.887V61Zm13.727 3H24.387a1.5 1.5 0 0 1-1.5-1.5V47.273a1.5 1.5 0 0 1 1.5-1.5h15.227a1.5 1.5 0 0 1 1.5 1.5V62.5a1.5 1.5 0 0 1-1.5 1.5ZM61 61H48.774V48.773H61V61Zm-13.727 3H62.5a1.5 1.5 0 0 0 1.5-1.5V47.273a1.5 1.5 0 0 0-1.5-1.5H47.274a1.5 1.5 0 0 0-1.5 1.5V62.5a1.5 1.5 0 0 0 1.5 1.5Z" fill="currentColor"/></svg>
